templates/main/source/images/small/sale.svg

<?xml version="1.0" encoding="utf-8"?>
<svg width="24px" height="24px" viewBox="0 0 24 24" version="1.1" xmlns:xlink="http://www.w3.org/1999/xlink" xmlns="http://www.w3.org/2000/svg">
  <desc>Created with Lunacy</desc>
  <defs>
    <rect width="24" height="24" id="artboard_1" />
    <clipPath id="clip_1">
      <use xlink:href="#artboard_1" clip-rule="evenodd" />
    </clipPath>
  </defs>
  <g id="sale" clip-path="url(#clip_1)">
    <path d="M11.2941 0C17.5317 3.13475e-16 22.5882 5.05655 22.5882 11.2941C22.5882 17.5317 17.5317 22.5882 11.2941 22.5882C5.05655 22.5882 7.83687e-16 17.5317 0 11.2941C-7.83687e-16 5.05655 5.05655 1.09716e-15 11.2941 0Z" transform="translate(0.7058824 0.7058824)" id="Path" fill="#FFFFFF" stroke="none" />
    <path d="M0 12C0 18.6274 5.37258 24 12 24C15.1826 24 18.2348 22.7357 20.4853 20.4853C22.7357 18.2348 24 15.1826 24 12C24 5.37258 18.6274 0 12 0C5.37258 0 0 5.37258 0 12ZM1.41176 12C1.41176 6.15228 6.15228 1.41176 12 1.41176C14.8082 1.41176 17.5013 2.52731 19.487 4.51299C21.4727 6.49867 22.5882 9.19183 22.5882 12C22.5882 17.8477 17.8477 22.5882 12 22.5882C6.15228 22.5882 1.41176 17.8477 1.41176 12Z" id="Shape" fill="#8C0014" fill-rule="evenodd" stroke="none" />
    <path d="M2.786 10.108L9.842 0.686L8.932 0L1.862 9.464L2.786 10.108ZM2.758 5.026Q3.962 5.026 4.739 4.333Q5.516 3.64 5.516 2.52Q5.516 1.4 4.739 0.714Q3.962 0.028 2.758 0.028Q1.554 0.028 0.777 0.714Q0 1.4 0 2.52Q0 3.64 0.77 4.34Q1.554 5.026 2.758 5.026ZM1.869 3.395Q2.226 3.724 2.758 3.724Q3.318 3.724 3.668 3.395Q4.018 3.066 4.018 2.52Q4.018 1.988 3.661 1.659Q3.304 1.33 2.758 1.33Q2.226 1.33 1.869 1.659Q1.512 1.988 1.512 2.52Q1.512 3.066 1.869 3.395ZM8.946 10.094Q10.15 10.094 10.927 9.401Q11.704 8.708 11.704 7.588Q11.704 6.468 10.927 5.782Q10.15 5.096 8.946 5.096Q7.742 5.096 6.965 5.782Q6.188 6.468 6.188 7.588Q6.188 8.708 6.958 9.408Q7.742 10.094 8.946 10.094ZM8.057 8.463C8.295 8.68233 8.59133 8.792 8.946 8.792Q9.506 8.792 9.856 8.463C10.0893 8.24367 10.206 7.952 10.206 7.588Q10.206 7.056 9.849 6.727C9.611 6.50767 9.31 6.398 8.946 6.398Q8.414 6.398 8.057 6.727Q7.7 7.056 7.7 7.588Q7.7 8.134 8.057 8.463Z" transform="translate(6 7)" id="%" fill="#8C0014" fill-rule="evenodd" stroke="none" />
  </g>
</svg>

<svg width="24" height="24" viewBox="0 0 24 24" xmlns:xlink="http://www.w3.org/1999/xlink" xmlns="http://www.w3.org/2000/svg"><defs><clipPath id="clip_1"><use xlink:href="#artboard_1" clip-rule="evenodd"/></clipPath><path id="artboard_1" d="M0 0h24v24H0z"/></defs><g id="sale" clip-path="url(#clip_1)" stroke="none"><path d="M11.294 0c6.238 0 11.294 5.057 11.294 11.294 0 6.238-5.056 11.294-11.294 11.294C5.057 22.588 0 17.532 0 11.294 0 5.057 5.057 0 11.294 0z" transform="translate(.706 .706)" id="Path" fill="#FFF"/><path d="M0 12c0 6.627 5.373 12 12 12a12 12 0 0012-12c0-6.627-5.373-12-12-12S0 5.373 0 12zm1.412 0C1.412 6.152 6.152 1.412 12 1.412A10.588 10.588 0 0122.588 12c0 5.848-4.74 10.588-10.588 10.588-5.848 0-10.588-4.74-10.588-10.588z" id="Shape" fill="#8C0014" fill-rule="evenodd"/><path d="M2.786 10.108L9.842.686 8.932 0l-7.07 9.464.924.644zm-.028-5.082q1.204 0 1.981-.693.777-.693.777-1.813T4.739.714Q3.962.028 2.758.028 1.554.028.777.714 0 1.4 0 2.52t.77 1.82q.784.686 1.988.686zm-.889-1.631q.357.329.889.329.56 0 .91-.329t.35-.875q0-.532-.357-.861-.357-.329-.903-.329-.532 0-.889.329t-.357.861q0 .546.357.875zm7.077 6.699q1.204 0 1.981-.693.777-.693.777-1.813t-.777-1.806q-.777-.686-1.981-.686-1.204 0-1.981.686-.777.686-.777 1.806t.77 1.82q.784.686 1.988.686zm-.889-1.631c.238.22.534.329.889.329q.56 0 .91-.329c.233-.22.35-.511.35-.875q0-.532-.357-.861c-.238-.22-.539-.329-.903-.329q-.532 0-.889.329t-.357.861q0 .546.357.875z" transform="translate(6 7)" id="%" fill="#8C0014" fill-rule="evenodd"/></g></svg>
